icons/window-close.svg

<?xml version="1.0" encoding="UTF-8"?>
<svg xmlns="http://www.w3.org/2000/svg" xmlns:xlink="http://www.w3.org/1999/xlink" width="16pt" height="16pt" viewBox="0 0 16 16" version="1.1">
<g id="surface1">
<path style=" stroke:none;fill-rule:nonzero;fill:#9fabb3;fill-opacity:1;" d="M 3.71875 2.917969 L 13.074219 12.273438 C 13.332031 12.53125 13.332031 12.949219 13.074219 13.207031 C 12.816406 13.46875 12.398438 13.46875 12.136719 13.207031 L 2.78125 3.851562 C 2.523438 3.59375 2.523438 3.175781 2.78125 2.917969 C 3.042969 2.660156 3.460938 2.660156 3.71875 2.917969 Z M 3.71875 2.917969 "/>
<path style=" stroke:none;fill-rule:nonzero;fill:#9fabb3;fill-opacity:1;" d="M 13.074219 3.851562 L 3.71875 13.207031 C 3.460938 13.46875 3.042969 13.46875 2.78125 13.207031 C 2.523438 12.949219 2.523438 12.53125 2.78125 12.273438 L 12.136719 2.917969 C 12.398438 2.660156 12.816406 2.660156 13.074219 2.917969 C 13.332031 3.175781 13.332031 3.59375 13.074219 3.851562 Z M 13.074219 3.851562 "/>
</g>
</svg>

<svg xmlns="http://www.w3.org/2000/svg" width="16pt" height="16pt" viewBox="0 0 16 16"><g fill="#7fa8d6"><path d="M3.719 2.918l9.355 9.355a.66.66 0 0 1 0 .934.658.658 0 0 1-.937 0L2.78 3.852a.66.66 0 0 1 0-.934.665.665 0 0 1 .938 0zm0 0"/><path d="M13.074 3.852L3.72 13.207a.658.658 0 0 1-.938 0 .66.66 0 0 1 0-.934l9.356-9.355a.665.665 0 0 1 .937 0 .66.66 0 0 1 0 .934zm0 0"/></g></svg>
